X:1
T:They that go down to the sea
%%score [ 1 2 3 4 ]
L:1/8
M:4/4
K:A
V:1 treble nm="Soprano" snm="S"
V:2 alto nm="Alto" snm="A"
V:3 treble-8 nm="Tenor" snm="T"
V:4 bass nm="Bass" snm="B"
V:1
 z8 | z8 | z8 | c4 A2 c2 | F8 | A3 B c2 B2 | (e3 d c2) c2 | c2 c2 c2 c2 | c2 d2 e2 e2 | f4 e4 | %10
w: |||they that go|down|to the Sea in|Ships * * and|Oc- cu- py and|||
 d4 c4 | c4 c4 | A4 G4 | A8 | c4 c4 | c8 | c4 B4 | (c3 B A3 c | B3 A G3 B | A3 G F3 G | A3 B c4- | %21
w: |||||||||||
 c4) f4 | e4 c2 e2 | e4 e2 e2 | f2 f2 f2 c2 | (c3 d e2) f2 | (e3 d c2) c2 | c8 | z8 | c4 A2 B2 | %30
w: * God's|won- ders *|||||||for he com-|
 c4 c2 c2 | (B2 A2 G2) AB | c6 c2 | B4 e4 | c8 | A4 A2 A2 | G4 G2 G2 | G4 G2 G2 | (FGAB c2) B2 | %39
w: mand- ed the|storm * * * y|winds to|blow to|blow|for he com-|mand- ed com-|mand- ed the|storm * * * * y|
 e2 d2 (c3 B | c3 d c2) c2 | c8 | z8 | c2 c2 c2 c2 | (c2 B2 A2) B2 | (c>dcB c4) | z4 f4 | %47
w: winds to blow *|* * * to|blow||and he lift- ed|up * * the|Waves * * * *|the|
 (c>dcB c2) c2 | c8 | z4 (FG)(AB) | c2 c2 c4 | z4 c2 c2 | B2 B2 c4 | c2 B2 c4 | d2 c2 c4- | c4 z4 | %56
w: Waves * * * * there-|of|they * are *|mount- ed up|they are|mount- ed up|as it were|||
 z4 z4 | z8 | F4 F2 F2 | F8 | F2 F2 G4 | G2 G2 G2 G2 | G2 G2 (A3 B) | (c2 dc B2) B2 | c2 F2 z4 | %65
w: ||||||* * they *|reel * * * and|stag- ger|
 z8 | z8 | z8 | z8 | z4 z2 c2 | (B3 A G2) z2 | (f2 ed c2) z2 | (d2 cB c2) A2 | B2 B2 c2 F2 | %74
w: ||||they|Reel * *|Reel * * *|Reel * * * and|stag- ger to and|
 (c3 B A4) | G2 F2 F2 F2 | F8 | c4 A4 | B4 c4 | c8 | c8 | z4 c2 c2 | c8 | z4 d2 c2 | c4 z4 | z8 | %86
w: fro * *||||||||||||
 z8 | c2 B2 A2 G2 | (F2 d2) (c2 f2) | (e2 d2) c2 c2 | c2 c6 | z4 A4 | c4 B2 A2 | (B2 c2 d2 c2 | %94
w: ||||||||
 B2) A2 G4- | G4 z4 | z8 | z8 | z8 | z8 | A4 c2 c2 | (c2 B2 A2 B2 | c4) c4 | c8 | z4 B4 | B8 | %106
w: ||||||||||||
 z4 c4 | c8 | A4 c2 c2 | (c2 B2 A2 B2 | c4) c4 | c8 |[K:F#][M:2/4] z4 | c2 AG | A2 z2 | c2 cc | %116
w: ||||||||||
 c3 d | (cA) Bd | c c2 z | z4 | z4 | c2 cc | (c2 B2 | A2) (Bc) | (dB) AG | A c3 | z4 | z4 | z4 | %129
w: |||||||||||||
 z4 | z4 | z4 | z4 | z4 | f2 e2 | g2 c2 | c2 c2 | z4 | z4 | z4 | z4 | z4 | z4 | f2 e2 | g2 c2 | %145
w: ||||||||||||||and all|Huz- za|
 c2 c2 | f2 e2 | d>c c2 | z2 f2 | g2 c2 | B2 B2 | A>B c2 | B2 G2 | A4 | d2 c2 | c4 |] %156
w: Huz- za|Wel- come|home a- gain|Wel-|come home|wel- come|home a- gain|Wel- come|home|Wel- come|home|
V:2
 z8 | z8 | F4 F2 C2 | C8- | C4 B,2 B,2 | E6 E2 | E6 E2 | F2 F2 F2 F2 | E2 G2 A2 B2 | A4 A2 F2 | %10
w: ||they that go|down|* to the|Sea in|Ships and|Oc- cu py and|||
 B4 G4 | A4 A4 | F4 =F4 | F8 | A4 G4 | A8 | A4 G4 | A8 | z8 | F4 C4 | (F3 G A4) | G4 A4 | G6 G2 | %23
w: |||||||||these men|see * *|God's won-|ders his|
 G2 G4 G2 | A2 A4 F2 | G2 G2 A2 F2 | G2 F2 =F2 F2 | F8 | z8 | z8 | z8 | z8 | z8 | z8 | F4 F2 F2 | %35
w: won- ders his|won- ders his|great and migh- ty|won- ders in the|deep|||||||for he com-|
 E4 E2 E2 | E2 E2 E2 E2 | (E3 D C2) z2 | (A3 G F2) B2 | A2 (GF) G2 G2 | (A3 G F2) =F2 | F8 | %42
w: mand- ed the|storm- y winds to|blow * *|blow * * the|storm- y * winds to|blow * * to|blow|
 F2 E2 F2 G2 | A4 G4 | (F2 ^D2 F2 G2 | A2 G2 F2 =F2 | F2) G2 (A>BAG) | F4 =F4 | F8 | z8 | z8 | %51
w: and he lift- ed|up the|Wa * * *||ves the Wa * * *|ves there|of|||
 z4 A2 A2 | G2 G2 A4 | F2 G2 A4 | B2 G2 A4- | A4 z4 | z8 | z8 | D4 D2 D2 | D8 | D2 D2 E4 | %61
w: ||||||||||
 E2 E2 E2 E2 | E2 E2 z4 | z8 | z8 | z8 | z4 F4 | (G2 AG F2) =F2 | F2 F4 F2 | (E2 FG A2) G2 | %70
w: |||||they|reel * * * and|stag- ger they|reel * * * and|
 G2 E4 E2 | (A2 G2 F2) A2 | G2 E4 F2 | F2 G2 G2 A2 | (G3 F E4) | E2 C2 D2 D2 | D8 | F4 F4 | %78
w: stag- ger they|reel * * and|stag- ger they|stag- ger to amd|fro * *||||
 G4 (A2 GF) | =F8 | F8 | z4 F2 =F2 | F8 | z4 B2 G2 | A4 z4 | z8 | z8 | z8 | z4 A4 | %89
w: |||||||||||
 (A2 G2) F2 =F2 | F2 F6 | z8 | z8 | z8 | z8 | z8 | z8 | z8 | z8 | z8 | F4 F2 E2 | (A2 G2 F2 =F2 | %102
w: |||||||||||||
 F4) =F4 | F8 | z4 ^D4 | ^D8 | z4 F4 | =F8 | F4 F2 E2 | (A2 G2 F2 =F2 | F4) =F4 | F8 | %112
w: ||||||||||
[K:F#][M:2/4] z4 | F2 EE | F2 z2 | A2 AG | (A>G F)G | (AF) GA | G G2 z | z4 | z4 | A2 AG | (A2 G2 | %123
w: |||||||||||
 F2) (GA) | G2 FE | F F3 | z4 | z4 | z4 | z4 | z4 | z4 | z4 | A2 G2 | F2 A2 | B2 A2 | G2 A2 | z4 | %138
w: |||||||||||||||
 z4 | z4 | z4 | z4 | G2 G2 | F2 A2 | B2 A2 | G2 A2 | z4 | A2 G2 | F>G A2 | B2 A2 | G>F F2 | z4 | %152
w: |||||||||||Wel- come|home a- gain||
 G2 E2 | F4 | B2 G2 | A4 |] %156
w: ||||
V:3
 z8 | c4 A2 G2 | F8- | F4 (cB)(AB) | c4 d4 | c6 d2 | c2 B2 A2 G2 | A4 A2 (cd) | e2 d2 c2 B2 | %9
w: |they that go|down|* to * the *|Sea in|Ships and|Oc- cu- py their|Bus' ness and *|Oc- cu- py their|
 c4 c4 | f4 =f4 | f4 f4 | c4 c4 | c8 | f4 =f4 | f8 | e4 e4 | (e3 d c3 e | d3 c B3 d | c3 B A3 B | %20
w: Bus'- ness|in great|Wa- ters|these men|see|these men|see|these men|se * * *|||
 c4) f4 | e4 c2 d2 | c4 A2 c2 | B4 G2 A2 | c2 c2 c2 f2 | (e3 d c2) B2 | (c3 B A2) G2 | F8 | z8 | %29
w: e God's|won- ders his|won- ders his|won- ders his|great and migh- ty|won * * ders|in * * the|deep||
 z8 | z8 | z8 | e4 e2 e2 | e4 e4 | z8 | c4 c2 c2 | B4 B2 B2 | (c3 d e3 d | c3 B A2) B2 | %39
w: |||for he com-|mand- ed||for he com-|mand- ed the|storm * * *|* * * y|
 c2 d2 (e3 d | c3 B A2) G2 | F8 | z8 | z8 | z8 | z8 | z4 c4 | (A>BAG A2) G2 | F8 | z8 | z8 | %51
w: winds to blow *|* * * to|blow|||||the|Waves * * * * there-|of|||
 (AB)(cd) e2 e2 | e8 | f2 =f2 ^f4 | f2 =f2 ^f4 | f4 c4 | F4 z4 | z8 | B4 B2 B2 | B8 | B2 B2 B4 | %61
w: they * are * mount- ed|up|as it were|in- to Heav'n|and then|down||in- to the|deep|and their souls|
 B2 B2 B2 B2 | B2 B2 z4 | z8 | z8 | z8 | z8 | z8 | z4 z2 (AB) | (c>dcB c2) e2 | (B>cBA B2) c2 | %71
w: melt a- way with|trou- ble||||||they *|stag * * * * ger|stag * * * * ger|
 d2 B2 c2 A2 | B2 G2 A2 F2 | d2 B2 c2 f2 | (e3 d c4) | B2 A2 B2 B2 | B8 | A4 c4 | B4 A4 | G8 | F8 | %81
w: stag- ger stag- ger|stag- ger stag- ger|stag- ger to and|fro * *|like a drunk- en|man|and are|at their|wits|end|
 z4 A2 G2 | A8 | z4 f2 =f2 | f4 e2 d2 | (c2 B2) A2 B2 | c2 f6 | e2 d2 c2 B2 | (A2 G2) (F2 d2) | %89
w: then they|cry|then they|cry un- to|God * in their|trou- ble|and he bring- eth|them * out *|
 (c2 B2) A2 G2 | A2 F6 | z8 | z8 | z8 | z8 | z8 | e4 A2 B2 | (c2 d2 e2 d2 | c4) B4 | c8 | %100
w: of * their dis-|tress es||||||so that the|wav * * *|es are|still|
 c4 F2 G2 | (A2 B2 c2 B2 | A4) G4 | F8 | z4 F4 | F8 | z4 A4 | B8 | c4 F2 G2 | (A2 B2 c2 B2 | %110
w: so that the|wav * * *|es are|still|are|still|are|still|so that the|Wav * * *|
 A4) G4 | F8 |[K:F#][M:2/4] z4 | (Ac) cc | c2 z2 | f2 fe | (f2 e)d | c2 df | e c2 A | (BA) GF | %120
w: es are|still||then * they are|glad|then they are|Glad * be-|cause they are|qui- et be|cause * they are|
 A c2 z | f2 fe | (f2 ed | c2) (BA) | (B>d) cB | A F3 | z4 | z4 | z4 | z2 AB | c2 BA | Bd cB | %132
w: qui- et|then they are|glad * *|* be *|cause * they are|qui- et||||and he|bring- eth the|Ves- sel in- to|
 A2 z2 | f2 e2 | d2 c2 | d2 f2 | e2 f2 | z4 | z4 | z4 | z4 | z4 | f2 e2 | d2 c2 | d2 f2 | e2 f2 | %146
w: Port|and all|Huz- za|Huz- za|Huz- za||||||and all|Huz- za|Huz- za|Huz za|
 z4 | f2 e2 | d>c c2 | z2 f2 | e2 d>c | c2 z2 | d2 c2 | c4 | f2 e2 | f4 |] %156
w: |Wel come|home a- gain|Wel-|come home a-|gain|||||
V:4
 F,4 =F,2 ^F,2 | C,8 | D,4 B,,2 C,2 | F,,4 F,,2 F,,2 | F,,4 B,,2 B,,2 | (C,3 B,, A,,2) B,,2 | %6
w: They that go|down|they that go|down that go|down to the|Sea * * in|
 C,6 C,2 | [F,,F,]2 [F,,F,]2 [F,,F,]2 [A,,A,][B,,B,] | [C,C]2 [B,,B,]2 [A,,A,A,]2 [G,,G,,]2 | %9
w: Ships and|Oc- cu- py and *||
 [F,,F,]4 [A,,A,]4 | [B,,B,]4 [C,C]4 | [F,,F,]4 [F,,F,]4 | [F,,F,]4 C,4 | [F,,F,]8 | [F,,F,]4 C,4 | %15
w: ||||||
 [F,,F,]8 | [A,,A,]4 [E,,E,]4 | [A,,A,]8 | z8 | [F,,F,]4 [F,,F,]4 | [F,,F,]8 | C,4 [F,,F,]4 | %22
w: ||||these men|see|these men|
 C,6 (C,D,) | E,6 C,2 | [F,,F,]2 [F,,F,]2 [F,,F,F,]2 [F,,F,]2 | (C,3 B,, A,,2) B,,2 | C,6 C,2 | %27
w: cee they *|see *||||
 F,,8 | C,4 C,2 C,2 | F,4 F,2 E,2 | (A,3 G, F,3 A, | G,2) F,2 E,2 B,,2 | (C,3 B,, A,,2) A,,2 | %33
w: |for he com-|mand- ed the|storm * * *|* y winds to|blow * * to|
 (E,3 D, C,2) C,2 | (F,3 =F, ^F,3 G, | A,4) A,,4 | (E,3 F, E,3 D, | C,6) C,2 | %38
w: blow * * to|blow * * *|* to|blow * * *|* to|
 (F,>G,F,=F, ^F,2) G,2 | A,2 B,2 C2 C,2 | F,4 C,4 | F,,8 | F,2 G,2 A,2 G,2 | F,4 C,4 | %44
w: blow * * * * the|storm- y winds to|blow to|blow|||
 (F,2 G,2 A,2 G,2 | F,2 =F,2 ^F,2 G,2 | A,2 G,2) (F,>G,F,=F, | F,4) C,4 | F,,4 z4 | z8 | z8 | %51
w: |||||||
 z4 [A,,A,]2 [A,,A,]2 | E,2 E,2 [A,,A,]4 | [A,,A,]2 [G,,G,]2 [F,,F,]4 | [B,,B,]2 [C,C]2 [F,,-F,]4 | %55
w: ||||
 [F,,F,]4 z4 | z4 C,4 | F,,8 | B,,4 B,,2 B,,2 | B,,8 | B,,2 B,,2 E,4 | E,2 E,2 E,2 E,2 | %62
w: |down|down|||||
 E,2 E,2 z4 | z8 | z4 (F,3 G,) | (A,2 B,A, G,2) G,2 | A,2 F,2 z4 | z8 | z4 z2 (F,G,) | %69
w: ||they *|reel * * * and|stag- ger||they *|
 (A,>B,A,G, F,2) C,2 | E,2 E,4 C,2 | (F,2 G,2 A,2) F,2 | G,2 C,4 D,2 | B,,2 C,2 C,2 D,2 | C,8 | %75
w: Reel * * * * and|stag- ger they|reel * * and|stag- ger they|stag- ger to and|fro|
 E,2 F,2 B,,2 B,,2 | B,,8 | [F,,F,]4 [A,,A,]4 | [G,,G,]4 [F,,F,]4 | C,8 | F,,8 | z4 [F,,F,]2 C,2 | %82
w: |||||||
 [F,,F,]8 | z4 [B,,B,]2 [C,C]2 | [F,,F,F,]4 [C,C]2 [B,,B,]2 | %85
w: |||
 ([A,,A,]2 [G,,G,]2) [F,,F,]2 [G,,G,]2 | [A,,A,]2 [F,,F,]6 | z8 | z4 [F,,F,]3 [G,,G,] | %89
w: ||||
 [A,,A,]2 [B,,B,]2 [C,C]2 C,2 | [F,,F,]2 [F,,F,]6 | z4 [F,,F,]4 | [A,,A,]4 [G,,G,]2 [F,,F,]2 | %93
w: ||he|mak- eth the|
 ([G,,G,]2 [A,,A,]2 [B,,B,]2 [A,,A,]2 | [G,,G,]2) [F,,F,]2 C,4- | C,4 z4 | C,4 [F,,F,]2 [G,,G,]2 | %97
w: Stor * * *|m a calm|||
 ([A,,A,]2 [B,,B,]2 [C,C]2 [B,,B,]2 | [A,,A,]4) [G,,G,]4 | [F,,F,]8 | [F,,F,]4 [F,,F,]2 C,2 | %101
w: ||||
 ([F,,F,]2 [G,,G,]2 [A,,A,]2 [G,,G,]2 | [F,,F,]4) C,4 | F,,8 | z4 B,,4 | B,,8 | z4 [F,,F,]4 | C,8 | %108
w: |||||||
 [F,,F,]4 [F,,F,]2 C,2 | ([F,,F,]2 [G,,G,]2 [A,,A,]2 [G,,G,]2 | [F,,F,]4) C,4 | F,,8 | %112
w: ||||
[K:F#][M:2/4] z4 | F,2 C,C, | [F,,F,]2 z2 | F,2 F,C, | (F,>G, A,)B, | A,2 G,F, | C, C,2 z | z4 | %120
w: ||||||||
 z4 | [F,,F,]2 [F,,F,]C, | ([F,,F,]2 [G,,G,]2 | [A,,A,]2) ([G,,G,,G,][F,,F,]) | [G,,G,]2 C,C, | %125
w: |||||
 [F,,F,,F,] [F,,F,]3 | z2 A,B, | (CB,) A,G, | F,B, A,C | F,2 z2 | z4 | z4 | z4 | z4 | %134
w: |and he|bring * eth the|Ves- el in- to|Port|||||
 [B,,B,]2 [A,,A,]2 | [G,,G,]2 [F,,F,]2 | C,2 [F,,F,]2 | z2 C,2 | F,G, A,G, | A,B, CB, | A,F, B,A, | %141
w: |||their|friends as- sem- bl'd|on the Wharf to|wel- come them on|
 (G,2 F,2) | z4 | [B,,B,]2 [A,,A,]2 | [G,,G,]2 [F,,F,]2 | C,2 [F,,F,]2 | z4 | z4 | %148
w: shore *||and all|Huz- za|Huz- za|||
 [B,,B,]2 [A,,A,]2 | [G,,G,][F,,F,] [F,,F,]2 | G,2 B,2 | C>A, F,2 | G,2 C,2 | [F,,F,]4 | %154
w: Wel- come|home a- gain|Wel- come|home- a- gain|||
 [B,,B,]2 [C,C]2 | [F,,F,]4 |] %156
w: ||

